X:13
T:Polonäs i D ur AP Roos notbok
R:Slängpolska
B:AP Roos notbok, nr 13
B:http://www.smus.se/earkiv/fmk/browselarge.php?lang=sw&katalogid=M+29&bildnr=00035
O:Horn, Östergötland
Z:Nils L
M:3/4
L:1/16
K:D
a4 agfe fedc | d2f2 ABAG B2A2 | FDEF GABc d2>f2 |1 f2ed edcB A4 :|2 ecAc c4 d4 |: 
(DF).A.F (EG).B.G (Ac).e.c | (df).a.f .e.^g.b.^g .^g2.a2 | (DF).A.F (EG).B.G (Ac).e.c | (df).a.f .e.^g.b.^g .^g2.a2 | 
{/b}a2gf gfed edcB | Acec c2d2 d4 :|

